!!!COM: Cabral, Amilcar Lopes
!!!CDT: 1924-1973
!!!OTL: National Anthem, Guinea - Bissau
!!!ENC: Davis, Matthew J.
!!Vocal Line Only
**kern
*clefG2
*k[f#]
*G:
*M4/4
=1-
1r
=2
1r
=3
1r
=4
1r
=5
1r
==!|:6
8.d
16d
8.d
16d
8.d
16c
8.B
16B
=7
8.e
16e
8.e
16e
8.d
16c
8.B
16B
=8
8.g
16g
8.g
16g
4g
8.d
16e
=9
4f#
8.a
16g
2f#
=10
4d
8.d
16d
8.d
16c
8.B
16B
=11
4e
8.e
16e
8.d
16c
8.B
16B
=12
8a
8a
8a
8a
8a
8a
8g
8a
=13
2b
4b
!Chorus
8.B
16c
=14
[4d
8.d]
16d
4d
8.e
16e
=15
2d
4d
4d
=16
4.b
8g
4.a
8d
=17
8.g
16f#
8.g
16f#
8e
8e
8r
8d
=18
4.b
8g
4.a
8d
=19
8.g
16f#
8.g
16f#
8e
8e
8r
8e
=20
8.d
16f#
8.a
16b
4cc
4a
=21
[4dd
8.dd]
16cc
8.b
16cc
8.dd
16a
=22
8.a
16g
8f#
8a
8g
8g
8r
8e
=23
8.d
16f#
8.a
16b
4cc
4a
=24
[4dd
8.dd]
16cc
8.b
16cc
8.dd
16a
=25
!First Ending
8.a
16g
8f#
8a
8g
8g
4r
!(Repeat from measure 6)
==:|!26
!Second Ending
8.a
16g
8f#
8a
8g
8g
4r
=27
1r
=28
1r
=29
1r
==|!
*-
